X:3114
T:Johnny Going to the Ceili
O:england
R:reel
S:Paddy O'Neill
H:Similar to "Back of the Change" #265
D:Cathal McConnell: On Lough Erne Shore
M:C|
K:Dmix
AG~G2 Addc|AcGE EDEG|AG~G2 AddB|cBAG EGD2:|
|:eg~g2 ed (3Bcd|edeg a2ag|1 eg~g2 edcA|GAcd edd2:|2 eaag ~e3d|^cA (3Bcd e2d2||


